src/assets/foodIcons/steak-icon.svg

<svg width="32" class="iconPrimary" height="40" viewBox="0 0 32 40" fill="none" xmlns="http://www.w3.org/2000/svg">
<path d="M11.5106 28.232C5.42854 28.232 0.635431 25.6025 0.272926 22.1248C0.272926 22.0824 0.272926 22.0824 0.272926 22.04C0.272926 21.9551 0.272926 21.8279 0.272926 21.7431C0.272926 18.2653 4.98548 15.5086 11.5106 15.2541C22.9496 14.7876 29.4344 16.2296 31.2066 19.6649C31.2066 19.6649 31.2469 19.7073 31.2469 19.7497C31.5691 20.3435 31.7302 21.0221 31.7302 21.7431C31.7302 24.8391 28.3469 25.0936 24.7621 25.3057C23.594 25.3905 22.426 25.4753 21.2176 25.6025C19.6468 25.8146 18.4787 26.3235 17.2301 26.8325C15.6189 27.511 13.9675 28.232 11.5106 28.232ZM1.48127 21.9551C1.76322 24.7119 6.23411 26.9173 11.5106 26.9173C13.7259 26.9173 15.2162 26.2811 16.7467 25.6025C17.9954 25.0512 19.2843 24.4998 21.0162 24.2878C22.2649 24.1181 23.4732 24.0333 24.6413 23.9485C28.3872 23.694 30.4816 23.482 30.4816 21.6583C30.4816 21.1493 30.4011 20.7252 30.1997 20.3011L30.1594 20.2587C29.1122 18.2229 25.0441 15.8903 11.5106 16.4841C5.87161 16.6961 1.441 19.0288 1.441 21.7007C1.441 21.7855 1.441 21.8703 1.48127 21.9551ZM11.5106 34C5.18688 34 0.232648 31.1584 0.232648 27.511C0.232648 27.2142 0.19237 26.7901 0.152091 26.3235C0.0312566 25.136 -0.170135 23.482 0.272926 21.8703C0.353483 21.5734 0.635431 21.4038 0.917379 21.4038C1.19933 21.4462 1.441 21.6583 1.48127 21.9551C1.72294 24.7119 6.23411 26.9173 11.5106 26.9173C13.7259 26.9173 15.2162 26.2811 16.7467 25.6025C17.9954 25.0512 19.2843 24.4998 21.0162 24.2878C22.2649 24.1181 23.4732 24.0333 24.6413 23.9485C28.3872 23.694 30.4816 23.482 30.4816 21.6583C30.4816 21.1493 30.3608 20.6828 30.1594 20.2587C30.0386 20.0042 30.0788 19.6649 30.2802 19.4953C30.4816 19.2832 30.8039 19.2832 31.0052 19.4105C32.2539 20.2587 32.0928 22.9306 31.7705 26.0266C31.7302 26.6204 31.6497 27.1293 31.6497 27.4262C31.6497 30.5223 28.2663 30.7767 24.6816 30.9888C23.5135 31.0736 22.3454 31.1584 21.1371 31.2857C19.5662 31.4977 18.3981 32.0067 17.1495 32.5156C15.6189 33.279 13.9675 34 11.5106 34ZM1.19933 24.415C1.19933 25.0088 1.27988 25.6025 1.32016 26.1539C1.36044 26.6628 1.441 27.1293 1.441 27.511C1.441 30.3526 6.03272 32.7277 11.5106 32.7277C13.7259 32.7277 15.2162 32.0915 16.7467 31.4129C17.9954 30.8616 19.2843 30.3102 21.0162 30.0981C22.2649 29.9285 23.4732 29.8437 24.6413 29.7589C28.3872 29.5044 30.4816 29.2923 30.4816 27.4686C30.4816 27.1293 30.5219 26.6204 30.6025 25.9418C30.6427 25.4753 30.7233 24.6695 30.7636 23.8637C29.5149 24.9239 27.1788 25.0936 24.7218 25.2632C23.5538 25.3481 22.3857 25.4329 21.1773 25.5601C19.6065 25.7722 18.4384 26.2811 17.1898 26.7901C15.6189 27.4686 13.9675 28.1896 11.5106 28.1896C6.87856 28.232 2.97157 26.6628 1.19933 24.415ZM10.2217 24.415C7.52301 24.415 5.5091 23.2275 5.5091 21.7007C5.5091 20.1739 7.52301 18.9863 10.2217 18.9863C12.9203 18.9863 14.9342 20.1739 14.9342 21.7007C14.9342 23.2275 12.88 24.415 10.2217 24.415ZM10.2217 20.2163C8.08691 20.2163 6.71745 21.0645 6.71745 21.6583C6.71745 22.252 8.08691 23.1003 10.2217 23.1003C12.3564 23.1003 13.7259 22.252 13.7259 21.6583C13.7259 21.0645 12.3564 20.2163 10.2217 20.2163ZM24.9635 21.531C25.2052 21.319 25.2454 20.8949 25.0441 20.6404C23.0301 18.0533 18.237 18.1805 18.0356 18.1805C17.7134 18.1805 17.4315 18.4774 17.4717 18.8167C17.4717 19.156 17.7537 19.4529 18.0759 19.4105C18.1162 19.4105 22.5065 19.2832 24.1177 21.4038C24.2385 21.5734 24.3996 21.6583 24.601 21.6583C24.7218 21.7007 24.8829 21.6583 24.9635 21.531ZM6.35494 12.455C6.87856 11.6492 7.52301 9.78306 6.27439 8.42589C5.38827 7.49284 6.31467 6.09326 6.35494 6.00844C6.55634 5.71156 6.47578 5.32985 6.19383 5.1178C5.91188 4.90574 5.54938 4.99056 5.34799 5.28744C4.82437 6.09326 4.17992 7.95936 5.42854 9.31653C6.31467 10.2496 5.38827 11.6492 5.34799 11.734C5.1466 12.0309 5.22715 12.4126 5.5091 12.6246C5.62994 12.7094 5.75077 12.7519 5.8716 12.7519C6.03272 12.7519 6.23411 12.6246 6.35494 12.455ZM16.4245 12.455C16.9481 11.6492 17.5926 9.78306 16.344 8.42589C15.4578 7.49284 16.3842 6.09326 16.4245 6.00844C16.6259 5.71156 16.5453 5.32985 16.2634 5.1178C15.9814 4.90574 15.6189 4.99056 15.4176 5.28744C14.8939 6.09326 14.2495 7.95936 15.4981 9.31653C16.3842 10.2496 15.4578 11.6492 15.4176 11.734C15.2162 12.0309 15.2967 12.4126 15.5787 12.6246C15.6995 12.7094 15.8203 12.7519 15.9412 12.7519C16.1023 12.7519 16.3037 12.6246 16.4245 12.455ZM26.8969 12.455C27.4205 11.6492 28.0649 9.78306 26.8163 8.42589C25.9302 7.49284 26.8566 6.09326 26.8969 6.00844C27.0982 5.71156 27.0177 5.32985 26.7357 5.1178C26.4538 4.90574 26.0913 4.99056 25.8899 5.28744C25.3663 6.09326 24.7218 7.95936 25.9705 9.31653C26.8566 10.2496 25.9302 11.6492 25.8899 11.734C25.6885 12.0309 25.7691 12.4126 26.051 12.6246C26.1719 12.7094 26.2927 12.7519 26.4135 12.7519C26.5746 12.7519 26.776 12.6246 26.8969 12.455Z" fill="currentColor"/>
</svg>

<svg xmlns="http://www.w3.org/2000/svg" width="32" height="40" fill="none" class="iconPrimary" viewBox="0 0 32 40">
    <path fill="currentColor" d="M11.51 28.232c-6.081 0-10.875-2.63-11.237-6.107v-.382c0-3.478 4.712-6.234 11.238-6.489 11.439-.466 17.923.976 19.696 4.41 0 0 .04.043.04.086a4.15 4.15 0 0 1 .483 1.993c0 3.096-3.383 3.35-6.968 3.563-1.168.084-2.336.17-3.544.296-1.571.213-2.74.721-3.988 1.23-1.611.679-3.263 1.4-5.72 1.4ZM1.482 21.955c.282 2.757 4.753 4.962 10.03 4.962 2.215 0 3.705-.636 5.236-1.315 1.248-.55 2.537-1.102 4.27-1.314 1.248-.17 2.456-.255 3.624-.34 3.746-.254 5.84-.466 5.84-2.29 0-.509-.08-.933-.281-1.357l-.04-.042c-1.048-2.036-5.116-4.369-18.65-3.775-5.638.212-10.069 2.545-10.069 5.217 0 .084 0 .17.04.254ZM11.511 34C5.187 34 .233 31.158.233 27.511c0-.297-.04-.72-.08-1.188-.122-1.187-.323-2.841.12-4.453.08-.297.362-.466.644-.466a.657.657 0 0 1 .564.551c.242 2.757 4.753 4.962 10.03 4.962 2.215 0 3.705-.636 5.236-1.315 1.248-.55 2.537-1.102 4.27-1.314 1.248-.17 2.456-.255 3.624-.34 3.746-.254 5.84-.466 5.84-2.29 0-.509-.12-.975-.322-1.4-.12-.254-.08-.593.121-.763a.59.59 0 0 1 .725-.085c1.249.849 1.088 3.52.765 6.617-.04.593-.12 1.102-.12 1.4 0 3.095-3.384 3.35-6.968 3.562-1.168.085-2.337.17-3.545.297-1.57.212-2.739.72-3.988 1.23-1.53.763-3.182 1.484-5.638 1.484ZM1.199 24.415c0 .594.08 1.188.121 1.739.04.509.121.975.121 1.357 0 2.842 4.592 5.217 10.07 5.217 2.215 0 3.705-.636 5.236-1.315 1.248-.551 2.537-1.103 4.27-1.315 1.248-.17 2.456-.254 3.624-.34 3.746-.254 5.84-.466 5.84-2.29 0-.339.04-.848.121-1.526.04-.467.121-1.273.162-2.078-1.25 1.06-3.585 1.23-6.042 1.4-1.168.084-2.336.169-3.545.296-1.57.212-2.739.721-3.987 1.23-1.571.679-3.223 1.4-5.68 1.4-4.631.042-8.538-1.527-10.31-3.775Zm9.023 0c-2.699 0-4.713-1.188-4.713-2.714 0-1.527 2.014-2.715 4.713-2.715 2.698 0 4.712 1.188 4.712 2.715 0 1.526-2.054 2.714-4.712 2.714Zm0-4.199c-2.135 0-3.505.848-3.505 1.442s1.37 1.442 3.505 1.442c2.134 0 3.504-.848 3.504-1.442s-1.37-1.442-3.504-1.442Zm14.742 1.315a.682.682 0 0 0 .08-.89c-2.014-2.588-6.807-2.46-7.008-2.46a.578.578 0 0 0-.564.636c0 .339.282.636.604.593.04 0 4.43-.127 6.042 1.994.12.17.282.254.483.254.12.043.282 0 .363-.127Zm-18.61-9.076c.525-.806 1.169-2.672-.08-4.03-.886-.932.04-2.332.08-2.417a.648.648 0 0 0-.16-.89c-.282-.212-.645-.127-.846.17-.524.805-1.168 2.671.08 4.029.887.933-.04 2.332-.08 2.417a.648.648 0 0 0 .161.89c.12.085.242.128.363.128.16 0 .362-.127.483-.297Zm10.07 0c.524-.806 1.169-2.672-.08-4.03-.886-.932.04-2.332.08-2.417a.649.649 0 0 0-.16-.89c-.283-.212-.645-.127-.846.17-.524.805-1.168 2.671.08 4.029.886.933-.04 2.332-.08 2.417a.648.648 0 0 0 .16.89c.122.085.242.128.363.128.161 0 .363-.127.483-.297Zm10.473 0c.524-.806 1.168-2.672-.08-4.03-.887-.932.04-2.332.08-2.417a.649.649 0 0 0-.161-.89c-.282-.212-.645-.127-.846.17-.524.805-1.168 2.671.08 4.029.887.933-.04 2.332-.08 2.417a.648.648 0 0 0 .161.89c.12.085.242.128.363.128.16 0 .362-.127.483-.297Z"/>
</svg>
